X: 1
T: Little Diamond
R: Polka
M: 2/4
L: 1/8
K: Dmaj
|: A>B AF | DF AF | A>B AF | GF EF/E/ |
DE FG | AB cd | ed ce | d2 d2 :|
|: fd ge | fd cB | Ad cd | fe e2 |
fd ge | fd cB | Ag ec | d2 d2 :|
